img/svg/plus-ico.svg

<svg width="16" height="16" viewBox="0 0 16 16" fill="none" xmlns="http://www.w3.org/2000/svg">
<path d="M7.40942 11.4375V8.62444H4.59692C4.25174 8.62444 3.97192 8.34462 3.97192 7.99944C3.97192 7.65425 4.25174 7.37444 4.59692 7.37444H7.40942V4.53125C7.40942 4.18606 7.68924 3.90625 8.03442 3.90625C8.37961 3.90625 8.65942 4.18606 8.65942 4.53125V7.37444H11.4719C11.8171 7.37444 12.0969 7.65425 12.0969 7.99944C12.0969 8.34462 11.8171 8.62444 11.4719 8.62444H8.65942V11.4375C8.65942 11.7827 8.37961 12.0625 8.03442 12.0625C7.68924 12.0625 7.40942 11.7827 7.40942 11.4375Z" fill="#4C51CB"/>
<path d="M1.15295 12.1394C1.33179 12.4347 1.71606 12.5291 2.01135 12.3502C2.30664 12.1713 2.401 11.787 2.22205 11.4918C1.58618 10.442 1.25 9.23462 1.25 8C1.25 4.27808 4.27808 1.25 8 1.25C11.7219 1.25 14.75 4.27808 14.75 8C14.75 11.7219 11.7219 14.75 8 14.75C6.66907 14.75 5.37366 14.3542 4.25366 13.6055C3.96667 13.4136 3.57849 13.4907 3.38672 13.7777C3.19482 14.0646 3.27197 14.4528 3.55884 14.6447C4.88513 15.5312 6.4209 16 8 16C10.1368 16 12.1459 15.1678 13.6569 13.6569C15.1678 12.1459 16 10.1368 16 8C16 5.86316 15.1678 3.85413 13.6569 2.34314C12.1459 0.832153 10.1368 0 8 0C5.86316 0 3.85413 0.832153 2.34314 2.34314C0.832153 3.85413 0 5.86316 0 8C0 9.46289 0.398682 10.8943 1.15295 12.1394Z" fill="#4C51CB"/>
</svg>

<svg width="16" height="16" fill="none" xmlns="http://www.w3.org/2000/svg"><path d="M7.41 11.438V8.623H4.596a.625.625 0 110-1.25h2.812V4.531a.625.625 0 111.25 0v2.843h2.813a.625.625 0 110 1.25H8.659v2.813a.625.625 0 11-1.25 0z" fill="#4C51CB"/><path d="M1.153 12.14a.625.625 0 101.069-.648A6.738 6.738 0 011.25 8 6.758 6.758 0 018 1.25 6.758 6.758 0 0114.75 8 6.758 6.758 0 018 14.75a6.723 6.723 0 01-3.746-1.145.625.625 0 10-.695 1.04A7.97 7.97 0 008 16a7.948 7.948 0 005.657-2.343A7.948 7.948 0 0016 8a7.948 7.948 0 00-2.343-5.657A7.948 7.948 0 008 0a7.948 7.948 0 00-5.657 2.343A7.948 7.948 0 000 8c0 1.463.399 2.894 1.153 4.14z" fill="#4C51CB"/></svg>
